X:1
T:Title
%%score ( 1 2 ) ( 3 4 )
L:1/8
Q:1/4=90
M:4/4
K:Eb
V:1 treble nm="Grand Piano, Soprano"
V:2 treble 
V:3 bass nm="Grand Piano, Bass"
V:4 bass 
V:1
 z4 z2 E[EG] | [GB]>[GB] [GB][EG] [Ec][EB][EG]E | [EG]E [DF]>[DG] E2 [EG][EG] | %3
w: 1.~In~ the~|Bi ble~ Je sus~ tells~ us~ we~ must~|suf fer~ for~ His~ sake;~ Though~ the~|
 [DF]>[_D=E] [=DF][_EG] [FA][=EG][FA][DF] | [EG]6 E[EG] | [GB]>[GB] [GB][EG] [Ec][EB][EG]E | %6
w: world~ in~ trou ble~ wears~ a~ gloom y~|shroud,~ Heav en's~|grace~ is~ all~ we~ need~ if~ we~ the~|
 [Ee][Ee] [Ee]>[Ge] [Ae]2[Q:1/4=90] [Ac][Ac][Q:1/4=12] | [GB]>[EG] [Ge][Ac] [GB][EG][EF]E | %8
w: con se cra tion~ make,~ We~ are~|sure~ the~ sun~ is~ shin ing~ just~ be|
 [EG]2 [DF]2 [B,E]2 EF | G2 F2 z4 | .G2 A2 z4 | [Ge]>[Ge] [Ge][Ac] [GB][EG][EF]E | %12
w: hind~ the~ cloud.~ * *||||
 [EG]2 [DF]2 [B,E]2 EF | G2 F2 z4 | .G2 A2 z4 | [Ge]>[Ge] [Ge][Ac] [GB][EG][EF]E | %16
w: ||||
 [EG]2 [DF]2 [B,E]2 z2 |] %17
w: |
V:2
 x8 | x8 | x8 | x8 | x8 | x8 | x8 | x8 | x8 | EEDD [B,E]2 GA | B-[GB]FF [EG]2 [EG][GB] | x8 | x8 | %13
 EEDD [B,E]2 GA | B-[GB]FF [EG]2 [EG][GB] | x8 | x8 |] %17
V:3
 z4 z2 [E,G,][E,B,] | [E,E]>[E,E] [E,E][E,B,] [E,A,][E,G,][E,B,][C,=A,] | %2
 [B,,B,][B,,G,] [B,,A,]>[B,,B,] [E,G,]2 [E,B,][E,B,] | %3
 [B,,B,]>[B,,B,] [B,,B,][B,,B,] [B,,B,][B,,B,][B,,B,][B,,B,] | [E,B,]6 [E,G,][E,B,] | %5
 [E,E]>[E,E] [E,E][E,B,] [E,A,][E,G,][E,B,][E,G,] | [E,G,][F,A,] [G,B,]>[E,B,] [A,C]2 [A,E][A,E] | %7
 [E,E]>[E,B,] [E,B,][E,E] [E,E][G,B,][A,C][=A,C] | B,2 [B,,A,]2 [E,G,]2 G,A, | B,2 A,2 z4 | %10
 B,2 A,2 z4 | [E,B,]>[E,B,] [E,B,][E,E] [E,E][G,B,][A,C][=A,C] | B,2 [B,,A,]2 [E,G,]2 G,A, | %13
 B,2 A,2 z4 | B,2 A,2 z4 | [E,B,]>[E,B,] [E,B,][E,E] [E,E][G,B,][A,C][=A,C] | %16
 B,2 [B,,A,]2 [E,G,]2 z2 |] %17
V:4
 x8 | x8 | x8 | x8 | x8 | x8 | x8 | x8 | x8 | E,E,B,,B,, [E,G,]2 A,B, | %10
 E,E,B,,B,, [E,B,]2 [E,B,][E,B,] | x8 | x8 | E,E,B,,B,, [E,G,]2 A,B, | %14
 E,E,B,,B,, [E,B,]2 [E,B,][E,B,] | x8 | x8 |] %17

